styles/material-dark/images/notification_important.svg

<?xml version="1.0" encoding="UTF-8" standalone="no"?>
<svg
   height="24"
   viewBox="0 0 24 24"
   width="24"
   version="1.1"
   id="svg457"
   sodipodi:docname="notification_important.svg"
   inkscape:version="1.2.2 (b0a8486541, 2022-12-01)"
   xmlns:inkscape="http://www.inkscape.org/namespaces/inkscape"
   xmlns:sodipodi="http://sodipodi.sourceforge.net/DTD/sodipodi-0.dtd"
   xmlns="http://www.w3.org/2000/svg"
   xmlns:svg="http://www.w3.org/2000/svg">
  <defs
     id="defs461" />
  <sodipodi:namedview
     id="namedview459"
     pagecolor="#505050"
     bordercolor="#eeeeee"
     borderopacity="1"
     inkscape:showpageshadow="0"
     inkscape:pageopacity="0"
     inkscape:pagecheckerboard="0"
     inkscape:deskcolor="#505050"
     showgrid="false"
     inkscape:zoom="20.358783"
     inkscape:cx="6.9748766"
     inkscape:cy="12.353391"
     inkscape:window-width="1600"
     inkscape:window-height="828"
     inkscape:window-x="0"
     inkscape:window-y="0"
     inkscape:window-maximized="1"
     inkscape:current-layer="svg457" />
  <path
     d="M0 0h24v24H0V0z"
     fill="none"
     id="path453" />
  <path
     id="path455"
     style="font-variation-settings:normal;opacity:1;vector-effect:none;fill:#e2e2e2;fill-opacity:1;stroke-width:1;stroke-linecap:butt;stroke-linejoin:miter;stroke-miterlimit:4;stroke-dasharray:none;stroke-dashoffset:0;stroke-opacity:1;-inkscape-stroke:none;stop-color:#000000;stop-opacity:1"
     d="M 12,2.5 C 11.170002,2.5 10.5,3.1700016 10.5,4 V 4.6796875 C 7.6300058,5.3596861 6,7.9200062 6,11 v 5 l -2,2 v 1 H 20 V 18 L 18,16 V 11 C 18,7.9300062 16.359994,5.3596861 13.5,4.6796875 V 4 C 13.5,3.1700016 12.829998,2.5 12,2.5 Z m -1,4.6054688 h 2 v 5.7890622 h -2 z m 0,7.9472662 h 2 v 1.89453 H 11 Z M 10,20 c 0,1.099998 0.890002,2 2,2 1.099998,0 2,-0.900002 2,-2 z"
     sodipodi:nodetypes="sscsccccccscsscccccccccccscc" />
</svg>

<?xml version="1.0" encoding="UTF-8" standalone="no"?>
<svg
   height="24"
   viewBox="0 0 24 24"
   width="24"
   version="1.1"
   id="svg457"
   sodipodi:docname="notification_important.svg"
   inkscape:version="1.2.2 (b0a8486541, 2022-12-01)"
   xmlns:inkscape="http://www.inkscape.org/namespaces/inkscape"
   xmlns:sodipodi="http://sodipodi.sourceforge.net/DTD/sodipodi-0.dtd"
   xmlns="http://www.w3.org/2000/svg"
   xmlns:svg="http://www.w3.org/2000/svg">
  <defs
     id="defs461" />
  <sodipodi:namedview
     id="namedview459"
     pagecolor="#505050"
     bordercolor="#eeeeee"
     borderopacity="1"
     inkscape:showpageshadow="0"
     inkscape:pageopacity="0"
     inkscape:pagecheckerboard="0"
     inkscape:deskcolor="#505050"
     showgrid="false"
     inkscape:zoom="28.791667"
     inkscape:cx="8.301013"
     inkscape:cy="12.034732"
     inkscape:window-width="1600"
     inkscape:window-height="826"
     inkscape:window-x="0"
     inkscape:window-y="0"
     inkscape:window-maximized="1"
     inkscape:current-layer="svg457" />
  <path
     d="M0 0h24v24H0V0z"
     fill="none"
     id="path453" />
  <path
     d="M18 16v-5c0-3.07-1.64-5.64-4.5-6.32V4c0-.83-.67-1.5-1.5-1.5s-1.5.67-1.5 1.5v.68C7.63 5.36 6 7.92 6 11v5l-2 2v1h16v-1l-2-2zm-5 0h-2v-2h2v2zm0-4h-2V8h2v4zm-1 10c1.1 0 2-.9 2-2h-4c0 1.1.89 2 2 2z"
     id="path455"
     style="font-variation-settings:normal;opacity:1;vector-effect:none;fill:#e2e2e2;fill-opacity:1;stroke-width:1;stroke-linecap:butt;stroke-linejoin:miter;stroke-miterlimit:4;stroke-dasharray:none;stroke-dashoffset:0;stroke-opacity:1;-inkscape-stroke:none;stop-color:#000000;stop-opacity:1" />
</svg>
